X:1
T:The Holmfirth Anthem
M:2/4
L:1/8
K:G
 D| G3 D| G3/2- A/2 B3/2 c/2| d2 dd| c2 BB| A2 G2|F-DB-G| F2 E2| D3|\
 d| d2 d3/2 d/2| d3/2 d/2 B2| e3/2 e/2 d2| c2 BB| A2 G2| F2 G2| c2 B2|\
 A3- A/2d/2| d3 c|B-Gc-A| G2 F2| G3||
